assets/icons/librescoot-main-battery-fault.svg

<svg xmlns="http://www.w3.org/2000/svg" width="144" height="144" fill="none" viewBox="0 0 144 144"><path fill="#fff" d="M99.8506 22H114l.31.0039C120.794 22.1681 126 27.4761 126 34c0 .1639-.004.327-.011.4893.007.1694.011.3396.011.5107v46.3281c-2.544-.7706-5.226-1.2236-8-1.3115V45.3125a11.96 11.96 0 0 1-3.69.6836L114 46H30l-.3096-.0039c-1.2917-.0327-2.5312-.2737-3.6904-.6836V120c0 2.761 2.2386 5 5 5h58.335c1.5085 2.975 3.4831 5.673 5.8271 8H31l-.3359-.004c-6.9129-.175-12.4849-5.747-12.6602-12.66L18 120V35c0-.1711.0042-.3413.0107-.5107A12 12 0 0 1 18 34c0-6.5239 5.2061-11.8319 11.6904-11.9961L30 22h14.1494l10.6563-11h34.3886zM31 30c-2.5817 0-4.707 1.9565-4.9727 4.4678C26.259 36.4565 27.9491 38 30 38h84c2.051 0 3.74-1.5436 3.972-3.5322C117.706 31.9566 115.582 30 113 30h-8.968l-3.905 3.7832L96.4619 30H47.5381l-3.6651 3.7832L39.9678 30zm24.2881-8h33.4238l-2.9062-3H58.1943z"/><path fill="#fff" d="m98.1 122.506 6.3 6.253 12.6-12.357 12.6 12.357 6.3-6.253L123.45 110l12.45-12.5062-6.3-6.2531L117 103.747l-12.6-12.5063-6.3 6.2531L110.7 110z"/></svg>

<svg width="144" height="144" viewBox="0 0 144 144" fill="none" xmlns="http://www.w3.org/2000/svg">
<path d="M99.8506 22H114L114.31 22.0039C120.794 22.1681 126 27.4761 126 34C126 34.1639 125.996 34.327 125.989 34.4893C125.996 34.6587 126 34.8289 126 35V81.3281C123.456 80.5575 120.774 80.1045 118 80.0166V45.3125C116.841 45.7224 115.601 45.9634 114.31 45.9961L114 46H30L29.6904 45.9961C28.3987 45.9634 27.1592 45.7224 26 45.3125V120C26 122.761 28.2386 125 31 125H89.335C90.8435 127.975 92.8181 130.673 95.1621 133H31L30.6641 132.996C23.7512 132.821 18.1792 127.249 18.0039 120.336L18 120V35C18 34.8289 18.0042 34.6587 18.0107 34.4893C18.0042 34.327 18 34.1639 18 34C18 27.4761 23.2061 22.1681 29.6904 22.0039L30 22H44.1494L54.8057 11H89.1943L99.8506 22ZM31 30C28.4183 30 26.293 31.9565 26.0273 34.4678C26.259 36.4565 27.9491 38 30 38H114C116.051 38 117.74 36.4564 117.972 34.4678C117.706 31.9566 115.582 30 113 30H104.032L100.127 33.7832L96.4619 30H47.5381L43.873 33.7832L39.9678 30H31ZM55.2881 22H88.7119L85.8057 19H58.1943L55.2881 22Z" fill="white"/>
<path d="M98.1 122.506L104.4 128.759L117 116.402L129.6 128.759L135.9 122.506L123.45 110L135.9 97.4938L129.6 91.2407L117 103.747L104.4 91.2407L98.1 97.4938L110.7 110L98.1 122.506Z" fill="white"/>
</svg>
